packages/core/src/svgs/tokens/mono/HONEY.svg

<svg width="24" height="24" viewBox="0 0 24 24" fill="none" xmlns="http://www.w3.org/2000/svg">
<path d="M16.8612 4.57419C16.8663 4.57485 16.8714 4.57398 16.876 4.57168C16.8806 4.56937 16.8844 4.56576 16.8869 4.56129V4.53547L15.4224 2.0387V2.0129L15.4353 2H15.4483C15.9902 2.03225 16.4483 2.21935 16.8031 2.56128C16.9708 2.70966 17.1901 3.03225 17.474 3.52257C17.6795 3.86942 17.8859 4.21566 18.0934 4.56129C18.3616 4.29631 18.695 4.10683 19.0598 4.01198C19.4247 3.91712 19.8081 3.92026 20.1715 4.02107C20.5348 4.12187 20.865 4.31677 21.1288 4.58607C21.3927 4.85538 21.5807 5.18956 21.674 5.55484L21.6676 5.57418C21.6609 5.58103 21.6528 5.5863 21.6439 5.58966C21.635 5.593 21.6254 5.59432 21.6159 5.59354C20.6569 5.59723 19.6976 5.59723 18.7386 5.59354C18.7282 5.60019 18.7205 5.61037 18.7169 5.6222C18.7134 5.63405 18.7142 5.64677 18.7191 5.65806L20.0225 7.8774C20.0293 7.88918 20.0329 7.90253 20.0329 7.91612C20.0329 7.9297 20.0293 7.94305 20.0225 7.95482L19.0998 9.52903C19.0907 9.54152 19.0863 9.55673 19.0875 9.57208C19.0887 9.58759 19.0953 9.60204 19.1063 9.61288C20.5458 11.36 21.3204 13.5603 21.2933 15.8239C21.2661 18.0875 20.4389 20.2685 18.9579 21.9806C18.9321 22.0065 18.9127 22.0065 18.8935 21.9806L16.1192 17.1419C16.0935 17.0943 16.0557 17.0542 16.0096 17.0258C14.7192 16.2903 13.4353 15.5033 12.145 14.7096C10.8548 13.9161 9.55148 13.1225 8.24826 12.3807C8.15997 12.3379 8.06238 12.3179 7.96438 12.3225C6.08481 12.32 4.20525 12.3177 2.32568 12.3161V12.2839C3.94503 7.78064 8.46115 5.47096 13.1773 6.18064C13.198 6.18441 13.2192 6.18217 13.2388 6.17416C13.2582 6.16615 13.2749 6.15273 13.287 6.13547L14.1708 4.61935C14.1791 4.60613 14.1905 4.59513 14.2041 4.58726C14.2175 4.5794 14.2327 4.57491 14.2482 4.57419H16.8612ZM17.3967 12.1613L11.7063 8.91611C11.6934 8.90884 11.6782 8.90678 11.6637 8.91039C11.6493 8.91399 11.637 8.92296 11.6288 8.93547L10.3837 11.0645C10.3643 11.0903 10.3773 11.1291 10.4031 11.1419L16.0935 14.3935C16.1257 14.4064 16.1579 14.3935 16.1708 14.3678L17.4159 12.2387C17.4233 12.2258 17.4253 12.2105 17.4217 12.1961C17.4182 12.1818 17.4092 12.1693 17.3967 12.1613ZM9.59018 19.4193H14.7386C14.7445 19.4195 14.7502 19.4177 14.7549 19.4142C14.7595 19.4106 14.7629 19.4056 14.7644 19.3999C14.765 19.3949 14.7642 19.3897 14.7618 19.3852C14.7596 19.3805 14.7559 19.3767 14.7514 19.3742L7.01599 14.9032C7.01261 14.9023 7.00905 14.902 7.00556 14.9025C7.00207 14.9029 6.99871 14.9041 6.99569 14.9059C6.99266 14.9077 6.99004 14.9101 6.98799 14.913C6.98593 14.9159 6.98449 14.9192 6.98375 14.9226V14.9419L9.56438 19.4064C9.56637 19.41 9.56917 19.413 9.57253 19.4151C9.57588 19.4174 9.57972 19.4189 9.58374 19.4193H9.59018Z" fill="white"/>
</svg>

<svg xmlns="http://www.w3.org/2000/svg" width="24" height="24" fill="none" viewBox="0 0 24 24">
    <path fill="#fff" d="M16.861 4.574a.03.03 0 0 0 .026-.013v-.026L15.422 2.04v-.026L15.435 2h.013c.542.032 1 .22 1.355.561.168.149.387.471.671.962q.308.52.62 1.038a2.142 2.142 0 0 1 3.58.994l-.006.02a.07.07 0 0 1-.052.019q-1.44.004-2.877 0a.05.05 0 0 0-.02.064l1.303 2.22a.08.08 0 0 1 0 .077L19.1 9.529a.065.065 0 0 0 .006.084 9.59 9.59 0 0 1-.148 12.368q-.037.037-.064 0l-2.775-4.84a.3.3 0 0 0-.11-.115 135 135 0 0 1-3.864-2.316 135 135 0 0 0-3.897-2.33.6.6 0 0 0-.284-.058l-5.638-.006v-.032C3.945 7.78 8.46 5.47 13.177 6.18a.11.11 0 0 0 .11-.046l.884-1.516a.1.1 0 0 1 .077-.045zm.536 7.587-5.69-3.245a.06.06 0 0 0-.078.02l-1.245 2.129c-.02.025-.007.064.02.077l5.69 3.252c.032.012.064 0 .077-.026l1.245-2.13a.06.06 0 0 0-.02-.077M9.59 19.42h5.149a.03.03 0 0 0 .025-.02q.001-.007-.002-.014l-.01-.01-7.736-4.472a.03.03 0 0 0-.028.01l-.004.01v.019l2.58 4.464.009.01.01.003z"/>
</svg>
